X: 1
T: the Rocky Road To Dublin
Z: Martin_Dring <mdoering@comlineag.de>
M: 9/8
K: Ador
[|"Am"e=fe "G"dcB "Am"A3 | "Am"E2A A2B "G"c2d | "Am"e=fe "G"dcB "Am"A2c | "G"B2A G2A Bcd |
| "Am"e=fe "G"dcB "Am"A3 | "Am"E2A A2B "G"c2d |  "C"efg  "D"fga  "C"g2e | "G"d2B G2A Bcd |]
[|"Am"e2a     a2f  "G"g3 | "Am"e2a a2A "G"Bcd | "Am"e2a     a2f  "C"g2e | "G"d2B G2A Bcd |
| "Am"e2a     a2f  "G"g3 | "Am"e2a a2A "G"Bcd |  "C"efg  "D"fga  "C"g2e | "G"d2B G2A Bcd |]
